X:5
T:How We Spent the Christmas
R:Reel
S: O'Neill's Waifs and Strays of Gaelic Melody; from Francis O'Neill.
M:C|
K:D
df|eA ~A2 BG ~G2|(3AGA fe dB ~B2|eA ~A2 BG ~G2|Agfe d2:|de|fdfa fdfa|edef dB B2| fdfa fdfa|edeg d3 e|fdfa fdfa|edef dB B2|ABAF ABdf|afef d2||
